svgs/vlc.svg

<svg width="192" height="192" viewBox="0 0 192 192" fill="none" xmlns="http://www.w3.org/2000/svg">
<path d="M57.5 122H46C42.4444 122 39.3156 124.347 38.32 127.76L28.9867 159.76C27.4933 164.88 31.3333 170 36.6667 170H155.333C160.667 170 164.507 164.88 163.013 159.76L153.68 127.76C152.684 124.347 149.556 122 146 122H136.5" stroke="black" stroke-width="12" stroke-linecap="round" stroke-linejoin="round"/>
<path d="M103.651 25.039C101.344 17.4893 90.656 17.4893 88.3492 25.039L55.6722 131.982C54.786 134.882 55.8511 138.053 58.4504 139.615C69.4215 146.208 82.268 150 96 150C109.732 150 122.579 146.208 133.55 139.615C136.149 138.053 137.214 134.882 136.328 131.982L103.651 25.039Z" stroke="black" stroke-width="12" stroke-linecap="round" stroke-linejoin="round"/>
<path fill-rule="evenodd" clip-rule="evenodd" d="M66.7532 97.0657L63.0231 108.599C73.0244 113.346 84.209 116 96 116C107.564 116 118.545 113.447 128.398 108.871L125.085 97.147C116.339 101.531 106.465 104 96 104C85.47 104 75.5388 101.5 66.7532 97.0657ZM75.557 69.8435C76.3278 70.3553 77.1189 70.839 77.9287 71.293C83.2785 74.2921 89.4488 76 96 76C102.551 76 108.722 74.2921 114.071 71.293C115.155 70.6853 116.206 70.0244 117.219 69.3138L113.655 56.7017C112.041 58.3108 110.208 59.7016 108.203 60.8256C104.599 62.8459 100.444 64 96 64C91.5564 64 87.4005 62.8459 83.7968 60.8256C82.2428 59.9545 80.7921 58.923 79.4668 57.7539L75.557 69.8435Z" fill="black"/>
</svg>

<svg width="192" height="192" viewBox="0 0 192 192" fill="none" xmlns="http://www.w3.org/2000/svg"><path d="M57.5 122H46a8 8 0 0 0-7.68 5.76l-9.333 32c-1.494 5.12 2.346 10.24 7.68 10.24h118.666c5.334 0 9.174-5.12 7.68-10.24l-9.333-32A8 8 0 0 0 146 122h-9.5" stroke="#000" stroke-width="12" stroke-linecap="round" stroke-linejoin="round"/><path d="M103.651 25.039c-2.307-7.55-12.995-7.55-15.302 0L55.672 131.982c-.886 2.9.18 6.071 2.778 7.633C69.421 146.208 82.268 150 96 150c13.732 0 26.579-3.792 37.55-10.385 2.599-1.562 3.664-4.733 2.778-7.633L103.651 25.039Z" stroke="#000" stroke-width="12" stroke-linecap="round" stroke-linejoin="round"/><path fill-rule="evenodd" clip-rule="evenodd" d="m66.753 97.066-3.73 11.533C73.024 113.346 84.21 116 96 116c11.564 0 22.545-2.553 32.398-7.129l-3.313-11.724C116.339 101.531 106.465 104 96 104c-10.53 0-20.461-2.5-29.247-6.934Zm8.804-27.222A36.86 36.86 0 0 0 96 76a36.857 36.857 0 0 0 21.219-6.686l-3.564-12.612a25.13 25.13 0 0 1-5.452 4.124A24.858 24.858 0 0 1 96 64a24.86 24.86 0 0 1-12.203-3.174 25.098 25.098 0 0 1-4.33-3.072l-3.91 12.09Z" fill="#000"/></svg>
